X: 1
T: The Boys of Bluehill
T: The Beaux of Oak Hill
R: hornpipe
O: Trad
Z: 1997 John Chambers <jc@trillian.mit.edu>
N: Kennedy p.7 #14 (reel)
N: Allan's 74
N: Cranitch 73 & 75
N: O'Neill's p.197
N: Brody p.54
M: 4/4
L: 1/8
K: D
|: d>B | "D"B>A F>A D>A F>A | "G"B>A Bcd "A7"e2 d>e | "D"f>g a>f "A7"e>g f>e | "D"d>f e>d "G"B>c d>B |
| "D"B>A F>A D>A F>A | "G"B>A Bcd "A7"e2 d>e | "D"f>a a>f "A7"e>g f>e | "D"d2 "(G)"f2 "D"d2 :|
|: f>g | "D"a>f d>f a2 g>f | "Em"e>f g>a b2 "(A7)"a>g | "D"f>a g>f "A7"e>g f>e | "D"d>f e>d "G"B>c d>B |
| "D"B>A F>A D>A F>A | "G"B>A Bcd "A7"e2 d>e | "D"f>a a>f "A7"e>g f>e | "D"d2 "(G)"f2 "D"d2 :|
